X:91
T:The Foxhunter's
R:slip jig
M:9/8
L:1/8
K:Dmaj
|: FDF F2D G2E | FDF F2D E2D | FDF F2D G2B | AFD DEF E2D :|
|: B3 BAG FGA | B2E E2F G2B | ABc dcB ABc | d2 D D2 F E2 D :|
|: fdf f2d g2e | fdf f2d e2d | fdf f2d g2b | afd def e2d :|
|: gfe dcB AGF | B2 E E2 F G2 B | ABc dcB ABc | d2 D DEF E2 D :|

